X:2936
T:Jacksons Dream
O:england
R:Jig
M:6/8
K:D
F | DED D2d | AGF F2d | AGF FED | EFE E2F | \
DED D2d | AGF F2d | AGF FED | D/2E/2FD D2 :|
|:g | f2d edB | ABd d2g | f2d edB | ABd e2g | \
f2d edB | f/2g/2af g2e | f/2g/2af gfe | fdd d2 :|


